src/img/github.svg

<svg id="Layer_1" data-name="Layer 1" xmlns="http://www.w3.org/2000/svg" viewBox="0 0 30 29.7"><title>github</title><g id="Page-1"><g id="github"><path id="Shape" d="M15,.2a15,15,0,0,0-3.6,29.6.6.6,0,0,0,.4-.1.52.52,0,0,0,.2-.4V25.7c0-.1-.1-.3-.1-.4s-.2-.1-.4-.1h-1c-1.6,0-2.6-1.5-3.5-2.8-.2-.2-.3-.5-.5-.7A5.66,5.66,0,0,1,8,22.9a3.56,3.56,0,0,0,2.6,1.4h0c.5,0,1.5-.5,1.5-2v-.5a.51.51,0,0,0-.4-.5c-3.4-1-5.6-3.7-5.6-6.8A6.31,6.31,0,0,1,8,10.1V9.5a3.17,3.17,0,0,1,.7-3.2,7.88,7.88,0,0,1,2,1.7c.1.2.4.2.6.1l.3-.1a11.21,11.21,0,0,1,3.6-.9,11.21,11.21,0,0,1,3.6.9l.3.1a.66.66,0,0,0,.6-.1,6.27,6.27,0,0,1,2-1.7,3.22,3.22,0,0,1,.7,3.2c-.4.2-.4.4-.3.6A6.23,6.23,0,0,1,24,14.3a7.41,7.41,0,0,1-6.1,7,.27.27,0,0,0-.3.3c0,.2-.1.3,0,.4a6.33,6.33,0,0,1,.4,2.8v4.6a.52.52,0,0,0,.2.4.37.37,0,0,0,.3.1h.1A15.28,15.28,0,0,0,30,15.2,15,15,0,0,0,15,.2Z" transform="translate(0 -0.2)"/></g></g></svg>

<?xml version="1.0" encoding="UTF-8" standalone="no"?>
<svg width="30px" height="30px" viewBox="0 0 30 30" version="1.1" xmlns="http://www.w3.org/2000/svg" xmlns:xlink="http://www.w3.org/1999/xlink">
    <!-- Generator: Sketch 47 (45396) - http://www.bohemiancoding.com/sketch -->
    <title>github</title>
    <desc>Created with Sketch.</desc>
    <defs></defs>
    <g id="Page-1" stroke="none" stroke-width="1" fill="none" fill-rule="evenodd">
        <g id="github" fill-rule="nonzero" fill="#000000">
            <path d="M15,0.2 C6.7,0.2 0,6.9 0,15.2 C0,22.1 4.7,28.1 11.4,29.8 C11.5,29.8 11.7,29.8 11.8,29.7 C11.9,29.6 12,29.5 12,29.3 L12,25.7 C12,25.6 11.9,25.4 11.9,25.3 C11.8,25.2 11.7,25.2 11.5,25.2 L10.5,25.2 C8.9,25.2 7.9,23.7 7,22.4 C6.8,22.2 6.7,21.9 6.5,21.7 C7.1,22 7.5,22.4 8,22.9 C8.7,23.6 9.4,24.3 10.6,24.3 C10.6,24.3 10.6,24.3 10.6,24.3 C11.1,24.3 12.1,23.8 12.1,22.3 L12.1,21.8 C12.1,21.6 12,21.4 11.7,21.3 C8.3,20.3 6.1,17.6 6.1,14.5 C6.1,12.9 6.8,11.3 8,10.1 C8,9.9 8,9.7 8,9.5 C7.5,8.5 8,7.1 8.7,6.3 C9.4,6.6 10.1,7.4 10.7,8 C10.8,8.2 11.1,8.2 11.3,8.1 L11.6,8 C12.7,7.6 14,7.1 15.2,7.1 C16.4,7.1 17.7,7.6 18.8,8 L19.1,8.1 C19.3,8.2 19.5,8.1 19.7,8 C20.3,7.3 21,6.6 21.7,6.3 C22.4,7.2 22.9,8.5 22.4,9.5 C22,9.7 22,9.9 22.1,10.1 C23.3,11.4 24,12.8 24,14.3 C24,17.6 21.5,20.5 17.9,21.3 C17.7,21.3 17.6,21.4 17.6,21.6 C17.6,21.8 17.5,21.9 17.6,22 C17.9,22.5 18,23.5 18,24.8 C18,26.5 18,29.4 18,29.4 C18,29.6 18.1,29.7 18.2,29.8 C18.3,29.9 18.4,29.9 18.5,29.9 C18.5,29.9 18.6,29.9 18.6,29.9 C25.3,28.1 30,22.1 30,15.2 C30,6.9 23.3,0.2 15,0.2 Z" id="Shape"></path>
        </g>
    </g>
</svg>
